<?xml version="1.0" encoding="UTF-8"?>
<map version="1.10" tiledversion="1.11.2" orientation="orthogonal" renderorder="right-down" width="40" height="20" tilewidth="32" tileheight="32" infinite="0" nextlayerid="16" nextobjectid="347">
 <tileset firstgid="1" source="Grass Land - tileset-cliff.tsx"/>
 <tileset firstgid="241" source="Animated water tiles-transp.tsx"/>
 <tileset firstgid="977" source="Terrain.tsx"/>
 <tileset firstgid="3515" source="Animated water tiles.tsx"/>
 <tileset firstgid="4251" source="Atlas-Props-Sprites.tsx"/>
 <tileset firstgid="6451" source="Atlas-Props.tsx"/>
 <tileset firstgid="9103" source="Animated Tree1.tsx"/>
 <layer id="1" name="terrain0" width="40" height="20">
  <data encoding="csv">
3321,3321,3321,3321,3321,3321,1154,1158,3321,3321,3321,3321,3321,3321,3321,3321,3321,3321,3321,3321,3321,3321,3321,3321,3321,3321,3321,3321,3321,3321,3321,3321,3321,3321,1100,1048,1048,1104,3321,3321,
3321,1100,1048,1049,3321,1100,1101,1158,3321,3321,3321,3321,3321,3321,3321,3321,3321,3321,3321,3321,3321,3321,3321,3321,1047,1049,3321,3321,3321,3321,3321,3321,3321,3321,1154,1156,1156,1103,1048,1104,
3321,1263,1209,1158,1047,1101,1211,1212,3321,3321,3321,3321,3321,3321,3321,3321,3321,3321,3321,3321,3321,3321,3321,3321,1154,1158,3321,3321,3321,3321,3321,3321,3321,3321,1208,1209,1156,1156,1156,1158,
3321,3321,1154,1103,1101,1156,1103,1104,3321,3321,3321,3321,3321,3321,3321,3321,3321,3321,3321,3321,3321,3321,3321,3321,1263,1212,3321,3321,3321,3321,3321,3321,3321,3321,3321,1154,1211,1209,1156,1158,
3321,3321,1154,1211,1264,1264,1209,1103,1048,1104,3321,3321,3321,3321,3321,3321,3321,3321,3321,3321,3321,3321,1100,1048,1049,1100,1048,1104,3321,3321,3321,3321,3321,3321,1047,1101,1103,1101,1211,1212,
3321,3321,1154,1103,1104,3321,1263,1209,1156,1158,3321,3321,3321,3321,3321,3321,3321,3321,3321,3321,3321,3321,1154,1211,1212,1154,1156,1158,3321,3321,3321,3321,3321,3321,1154,1211,1209,1156,1158,3321,
3321,3321,1263,1209,1103,1048,1049,1208,1209,1103,1048,1048,1049,3321,3321,3321,3321,3321,3321,3321,3321,3321,1263,1265,1100,1101,1209,1103,1048,1048,1049,3321,3321,3321,1154,1158,1154,1156,1103,1104,
3321,3321,3321,1208,1264,1264,1050,1048,1101,1156,1156,1211,1212,3321,3321,3321,3321,3321,3321,3321,3321,1047,1048,1048,1046,1265,1154,1156,1156,1211,1212,3321,3321,3321,1154,1158,1154,1156,1211,1265,
3321,3321,3321,3321,3321,3321,1208,1209,1156,1156,1156,1103,1104,3321,1047,1048,1104,3321,3321,3321,3321,1154,1156,1156,1158,1047,1101,1156,1156,1103,1104,3321,1047,1048,1101,1103,1101,1156,1158,3321,
3321,3321,3321,3321,3321,1047,1049,1154,1211,1264,1264,1209,1103,1048,1046,1209,1158,3321,1100,1048,1048,1046,1264,1209,1103,1101,1156,1211,1264,1209,1103,1048,1046,1209,1211,1264,1209,1156,1103,1049,
3321,3321,3321,3321,3321,1208,1050,1046,1265,3321,1047,1046,1264,1209,1103,1101,1158,1100,1101,1211,1209,1103,1048,1101,1156,1211,1264,1265,1047,1046,1264,1209,3321,1263,1212,3321,1263,1264,1264,1265,
3321,3321,3321,3321,3321,3268,1154,1158,1047,1104,1263,1212,3321,1154,1156,1156,1158,1208,1264,1212,1154,1156,1156,1156,1156,1158,1047,1104,1208,1212,3321,3321,3321,3321,3321,3321,3321,3321,3321,3321,
3321,3321,3321,3321,3321,3321,1208,1265,1263,1212,3321,3321,1100,1101,1156,1156,1103,1048,1049,3321,1263,1264,1264,1264,1264,1212,1263,1212,3321,3321,3321,3321,3321,3321,3321,3321,3321,3321,3321,3321,
3321,3321,3321,3321,3321,3321,3321,3321,3321,3321,3321,3321,1208,1264,1209,1156,1156,1156,1103,1104,3321,3321,3321,3321,3321,3321,3321,3321,3321,3321,3321,3321,3321,3321,3321,3321,3321,3321,3321,3321,
3321,3321,3321,3321,3321,3321,3321,3321,3321,3321,3376,3429,3429,3374,1208,1264,1264,1264,1264,1212,3321,3321,3321,3321,3321,3321,3321,3321,3376,3429,3429,3374,1208,1264,1264,1265,3321,3321,3321,3321,
3321,1100,1048,1049,3321,3321,3321,3321,3321,3321,3268,3213,3213,3266,3268,3321,3321,3321,3321,3321,3321,3321,3321,3321,3321,3321,3321,3321,3268,3213,3213,3266,3268,3321,3321,3321,3321,3321,3321,3321,
1049,1263,1264,1212,3321,3321,3321,3321,3321,3321,3321,3321,3321,3321,3321,3321,3321,3321,3321,3321,3321,3321,3321,3321,3321,3321,3321,3321,3321,3321,3321,3321,3321,3321,3321,3321,3321,3321,3321,3321,
1265,3321,1100,1104,3321,3321,3321,3321,3321,3321,3321,3321,3321,3321,3321,3321,3321,3321,3321,3321,3321,3321,3321,3321,3321,3321,3321,3321,3321,3321,3321,3321,3321,3321,1100,1048,1104,3321,3321,3321,
1047,1048,1046,1265,3321,3321,3321,3321,3321,3321,3321,3321,3321,3321,3321,3321,3321,3321,3321,3321,3321,3321,3321,3321,3321,3321,3321,3321,3321,3321,3321,3321,3321,3321,1263,1209,1158,3321,3321,3321,
1154,1211,1212,3321,3321,3321,3321,3321,3321,3321,3321,3321,3321,3321,3321,3321,3321,3321,3321,3321,3321,3321,3321,3321,1047,1048,3321,3321,3321,3321,3321,3321,3321,3321,1100,1101,1158,3321,3321,3321
</data>
 </layer>
 <layer id="7" name="terrain1" width="40" height="20">
  <data encoding="csv">
0,0,0,0,0,0,0,0,0,0,0,0,0,0,0,0,0,0,0,0,0,0,0,0,1236,1238,1240,0,0,0,0,0,0,0,0,0,0,0,0,0,
0,0,0,0,0,0,1500,1448,1449,0,0,0,0,0,0,0,0,0,0,0,0,0,0,0,1236,1238,1240,0,0,0,0,0,0,0,0,0,0,0,0,0,
0,0,0,1500,1448,1449,1554,1611,1665,0,0,0,0,0,0,0,0,0,0,0,0,0,0,0,1345,1291,1185,1186,0,0,0,0,0,0,0,0,0,0,0,0,
0,0,0,1608,1609,1503,1501,1558,0,0,0,0,0,0,0,0,0,0,0,0,0,0,0,0,0,1236,1238,1240,0,0,0,0,0,0,0,0,0,0,0,0,
0,0,0,0,1608,1609,1556,1503,1504,0,0,0,0,0,0,0,0,0,0,0,0,0,0,0,0,1236,1293,1347,0,0,0,0,0,0,0,0,0,0,0,0,
0,0,0,1447,1504,1608,1664,1609,1558,1500,1449,1500,1448,1449,0,0,0,0,0,0,0,0,0,0,0,1236,1240,0,0,0,0,0,0,0,0,0,0,0,0,0,
0,0,0,1663,1612,1500,1448,1501,1558,1554,1503,1501,1611,1665,0,0,0,0,0,0,0,0,0,0,0,1236,1240,0,0,0,0,0,0,0,0,0,0,0,0,0,
0,0,0,0,1447,1501,1556,1611,1450,1446,1609,1556,1503,1448,1504,0,0,0,0,0,0,0,0,0,1129,1183,1185,1131,1129,1186,0,0,1129,1130,1131,1129,1130,1130,1186,0,
0,0,0,0,1608,1664,1609,1503,1501,1558,1608,1609,1611,1664,1450,1504,0,0,0,0,0,0,0,1182,1183,1237,1239,1185,1183,1185,1130,1130,1183,1238,1185,1183,1238,1238,1185,1131,
0,0,0,0,0,0,1554,1611,1664,1665,0,1663,1612,0,1608,1612,0,0,1129,1186,0,0,1129,1183,1293,1346,1291,1237,1238,1238,1238,1237,1238,1293,1346,1346,1346,1346,1291,1185,
0,0,0,0,0,0,1608,1612,0,0,0,0,0,0,0,0,0,0,1290,1132,1130,1130,1183,1184,1240,0,1345,1346,1346,1346,1346,1346,1346,1347,0,0,0,0,1345,1346,
0,0,0,0,0,0,0,0,0,0,0,0,0,0,0,0,0,0,0,1290,1346,1346,1346,1346,1347,0,0,0,0,0,0,0,0,0,0,0,0,0,0,0,
0,0,0,0,0,0,0,0,0,0,0,0,0,0,0,0,0,0,0,0,0,0,0,0,0,0,0,0,0,0,0,0,0,0,0,0,0,0,0,0,
0,0,0,0,0,0,0,0,0,0,0,0,0,0,0,0,0,0,0,0,0,0,0,0,0,0,0,0,0,0,0,0,0,0,0,0,0,0,0,0,
0,0,0,0,0,0,0,0,0,0,0,0,0,0,0,0,0,0,0,0,0,0,0,0,0,0,0,0,0,0,0,0,0,0,0,0,0,0,0,0,
0,0,0,0,0,0,0,0,0,0,0,0,0,0,0,0,0,0,0,0,0,0,0,0,0,0,0,0,0,0,0,0,0,0,0,0,0,0,0,0,
0,0,0,0,0,0,0,0,0,0,0,0,0,0,0,0,0,0,0,0,0,0,0,0,0,0,0,0,0,0,0,0,0,0,0,0,0,0,0,0,
0,0,0,0,0,0,0,0,0,0,0,0,0,0,0,0,0,0,0,0,0,0,0,0,0,0,0,0,0,0,0,0,0,0,0,0,0,0,0,0,
0,0,0,0,0,0,0,0,0,0,0,0,0,0,0,0,0,0,0,0,0,0,0,0,0,0,0,0,0,0,0,0,0,0,0,0,0,0,0,0,
0,0,0,0,0,0,0,0,0,0,0,0,0,0,0,0,0,0,0,0,0,0,0,0,0,0,0,0,0,0,0,0,0,0,0,0,0,0,0,0
</data>
 </layer>
 <layer id="11" name="terrain2" width="40" height="20">
  <data encoding="csv">
0,0,0,0,0,0,0,0,0,0,0,0,0,0,0,0,0,0,0,0,0,0,0,0,0,0,0,0,1554,1556,1503,1448,1448,1446,1665,1447,1448,1448,1448,1449,
0,0,0,0,0,0,0,0,0,0,0,0,0,0,0,0,0,0,0,0,0,0,0,0,0,0,0,0,1663,1664,1664,1664,1609,1503,1448,1501,1611,1609,1556,1558,
0,0,0,0,0,0,0,0,0,0,0,0,0,0,0,0,0,0,0,0,0,0,0,2472,2476,0,0,0,0,0,0,0,1663,1664,1609,1556,1503,1501,1611,1665,
0,0,0,0,0,0,0,0,0,0,0,0,0,0,0,0,0,0,0,0,0,0,2419,2473,2530,0,0,0,0,0,0,0,0,0,1608,1664,1609,1556,1503,1448,
0,0,0,0,0,0,0,0,0,0,0,0,0,0,0,0,0,0,0,0,0,2419,2473,2583,2637,0,0,2472,2476,0,0,0,0,0,0,0,1663,1664,1664,1609,
0,0,0,0,0,0,0,0,0,0,0,0,0,0,0,0,0,0,0,0,0,2526,2583,2637,0,0,0,2526,2530,0,0,0,2425,2426,2426,2426,2426,2482,0,1554,
0,0,0,0,0,0,0,0,0,0,0,0,0,0,0,0,0,0,0,0,0,2526,2530,0,0,0,0,2635,2422,0,0,0,2586,2642,2587,2534,2589,2590,0,1608,
0,0,0,0,0,0,0,0,0,0,0,0,0,0,0,0,0,0,0,0,0,2526,2530,0,0,0,0,0,0,0,0,0,0,0,2586,2642,2643,0,0,0,
0,0,0,0,0,0,0,0,0,0,0,0,0,0,0,0,2472,2476,0,0,0,2580,2584,0,0,0,0,0,0,0,0,0,0,0,0,0,0,0,0,0,
0,0,0,0,0,0,0,0,0,0,0,0,0,0,0,0,2580,2584,0,0,0,0,0,0,0,0,0,0,0,0,0,0,0,0,0,0,0,0,0,0,
0,0,0,0,0,0,0,0,0,0,0,0,0,0,0,0,0,0,0,0,0,0,0,0,0,0,0,0,0,0,0,0,0,0,2472,2421,2472,2420,2476,0,
0,0,0,0,0,0,2472,2420,2476,0,2419,2420,2421,0,0,0,0,0,2419,2421,0,0,0,0,0,0,0,0,0,0,2419,2420,2421,2419,2418,2584,2526,2528,2475,2420,
0,0,0,0,0,0,2580,2636,2637,2419,2473,2583,2637,0,0,0,0,0,2526,2530,0,0,0,0,0,0,0,0,0,0,2580,2636,2422,2580,2637,2419,2473,2528,2583,2581,
0,0,0,0,0,0,0,2419,2476,2635,2636,2637,2472,2420,2476,0,0,0,2635,2422,0,0,0,0,0,0,0,0,0,0,0,0,0,0,0,2580,2636,2636,2637,2635,
0,0,0,0,0,0,0,2635,2584,0,0,0,2580,2636,2422,0,0,0,0,0,0,0,0,0,0,0,0,0,0,0,0,0,0,0,0,0,0,0,0,0,
0,0,0,0,0,0,0,0,0,0,0,0,0,0,0,0,0,0,0,0,0,0,0,0,0,0,0,0,0,0,0,0,0,0,0,0,0,0,0,0,
1504,0,0,0,0,0,0,0,0,0,0,0,0,0,0,0,0,0,0,0,0,0,0,0,0,0,0,0,0,0,0,0,0,0,0,0,0,0,0,0,
1558,0,1500,1504,0,0,0,0,0,0,0,0,0,0,0,0,0,0,0,0,0,0,0,0,0,0,0,0,2472,2476,0,2419,2420,2421,0,0,0,0,0,0,
1503,1448,1501,1558,0,0,0,0,0,0,0,0,0,0,0,0,0,0,0,0,0,0,0,0,0,0,2472,2420,2473,2475,2420,2473,2528,2530,0,0,0,0,0,0,
1611,1664,1664,1665,0,0,0,0,0,0,0,0,0,0,0,0,0,0,0,0,0,0,0,0,0,2472,2473,2528,2582,2583,2581,2528,2528,2475,2476,0,0,0,0,0
</data>
 </layer>
 <layer id="8" name="fences" width="40" height="20">
  <data encoding="csv">
0,0,0,0,0,0,0,0,0,0,0,0,0,0,0,0,0,0,0,0,0,0,0,0,1517,0,0,1518,0,0,0,0,0,0,0,0,0,0,0,0,
0,0,0,0,0,0,0,0,0,0,0,0,0,0,0,0,0,0,0,0,0,0,0,0,1517,0,0,1521,1524,0,0,0,0,0,0,0,0,0,0,0,
0,0,0,0,0,0,0,0,0,0,0,0,0,0,0,0,0,0,0,0,0,0,0,0,1466,0,0,0,0,0,0,0,0,0,0,0,0,0,0,0,
0,0,0,0,0,0,0,0,0,0,0,0,0,0,0,0,0,0,0,0,0,0,0,0,1466,0,0,0,0,0,0,0,0,0,0,0,0,0,0,0,
0,0,0,0,0,0,0,0,0,0,0,0,0,0,0,0,0,0,0,0,0,0,0,0,1571,0,0,0,0,0,0,0,0,0,0,0,0,0,0,0,
0,0,0,0,0,0,0,0,0,0,0,0,0,0,0,0,0,0,0,0,0,0,0,0,0,0,0,0,0,0,0,0,0,0,0,0,0,0,0,0,
0,0,0,0,0,0,0,0,0,0,0,0,0,0,0,0,0,0,0,0,0,0,0,0,0,0,0,0,0,0,0,0,0,0,0,0,0,0,0,0,
0,0,0,0,0,0,0,0,0,0,0,0,0,0,0,0,0,0,0,0,0,0,0,0,0,0,0,0,0,0,0,0,0,0,0,0,0,2009,2010,1902,
0,0,0,0,0,0,0,0,0,0,0,0,0,0,0,0,0,0,0,0,0,0,0,0,0,0,0,0,0,0,0,0,0,0,0,0,0,0,0,0,
0,0,0,0,0,0,0,0,0,0,0,0,0,0,0,0,0,0,0,0,0,0,0,0,0,0,0,0,0,0,0,0,0,0,0,0,0,0,0,0,
0,0,0,0,0,0,0,0,0,0,0,0,0,0,0,0,0,0,0,0,0,0,0,0,0,0,0,0,0,0,0,0,0,0,0,2009,1902,2010,1903,0,
0,0,0,0,0,0,0,0,0,0,0,0,0,0,0,0,0,0,0,0,0,0,0,0,0,0,0,0,0,0,0,0,0,0,0,0,0,0,1955,2010,
0,0,0,0,0,0,0,0,0,0,0,0,0,0,0,0,0,0,0,0,0,0,0,0,0,0,0,0,0,0,0,0,0,0,0,0,0,0,0,0,
0,0,0,0,0,0,0,0,0,0,0,0,0,0,0,0,0,0,0,0,0,0,0,0,0,0,0,0,0,0,0,0,0,0,0,0,0,0,0,0,
0,0,0,0,0,0,0,0,0,0,0,0,0,0,0,0,0,0,0,0,0,0,0,0,0,0,0,0,0,0,0,0,0,0,0,0,0,0,0,0,
0,0,0,0,0,0,0,0,0,0,0,0,0,0,0,0,0,0,0,0,0,0,0,0,0,0,0,0,0,0,0,0,0,0,0,0,0,0,0,0,
0,0,0,0,0,0,0,0,0,0,0,0,0,0,0,0,0,0,0,0,0,0,0,0,0,0,0,0,0,0,0,0,0,0,0,0,0,0,0,0,
0,0,0,0,0,0,0,0,0,0,0,0,0,0,0,0,0,0,0,0,0,0,0,0,0,0,0,0,0,0,0,0,0,0,0,0,0,0,0,0,
0,0,0,0,0,0,0,0,0,0,0,0,0,0,0,0,0,0,0,0,0,0,0,0,0,0,0,0,0,0,0,0,0,0,0,0,0,0,0,0,
0,0,0,0,0,0,0,0,0,0,0,0,0,0,0,0,0,0,0,0,0,0,0,0,0,0,0,0,0,0,0,0,0,0,0,0,0,0,0,0
</data>
 </layer>
 <layer id="3" name="water" width="40" height="20">
  <data encoding="csv">
3516,3516,3516,3516,0,0,0,0,0,0,0,0,0,0,0,0,0,0,0,0,0,0,0,0,0,0,0,0,0,0,0,0,0,0,0,0,0,0,0,0,
3516,0,0,0,0,0,0,0,0,0,0,0,0,0,0,0,0,0,0,0,0,0,0,0,0,0,0,0,0,0,0,0,0,0,0,0,0,0,0,0,
3516,0,0,0,0,0,0,0,0,0,0,0,0,0,0,0,0,0,0,0,0,0,0,0,0,0,0,0,0,0,0,0,0,0,0,0,0,0,0,0,
3516,0,0,0,0,0,0,0,0,0,0,0,0,0,0,0,0,0,0,0,0,0,0,0,0,0,0,0,0,0,0,0,0,0,0,0,0,0,0,0,
3516,0,0,0,0,0,0,0,0,0,0,0,0,0,0,0,0,0,0,0,0,0,0,0,0,0,0,0,0,0,0,0,0,0,0,0,0,0,0,0,
3516,0,0,0,0,0,0,0,0,0,0,0,0,0,0,0,0,0,0,0,0,0,0,0,0,0,0,0,0,0,0,0,0,0,0,0,0,0,0,0,
3516,0,0,0,0,0,0,0,0,0,0,0,0,0,0,0,0,0,0,0,0,0,0,0,0,0,0,0,0,0,0,0,0,0,0,0,0,0,0,0,
3516,3516,0,0,0,0,0,0,0,0,0,0,0,0,0,0,0,0,0,0,0,0,0,0,0,0,0,0,0,0,0,0,0,0,0,0,0,0,0,0,
3516,3516,0,0,0,0,0,0,0,0,0,0,0,0,0,0,0,0,0,0,0,0,0,0,0,0,0,0,0,0,0,0,0,0,0,0,0,0,0,0,
3516,3516,0,0,0,0,0,0,0,0,0,0,0,0,0,0,0,0,0,0,0,0,0,0,0,0,0,0,0,0,0,0,0,0,0,0,0,0,0,0,
3516,3516,3516,3516,0,0,0,0,0,0,0,0,0,0,0,0,0,0,0,0,0,0,0,0,0,0,0,0,0,0,0,0,0,0,0,0,0,0,0,0,
3516,3516,3516,3516,3516,0,0,0,0,0,0,0,0,0,0,0,0,0,0,0,0,0,0,0,0,0,0,0,0,0,0,0,0,0,0,0,0,0,0,0,
3516,3516,3516,3516,3516,0,0,0,0,0,0,0,0,0,0,0,0,0,0,0,0,0,0,0,0,0,0,0,0,0,0,0,0,0,0,0,0,0,0,0,
3516,3516,3516,3516,3516,3516,0,0,0,0,0,0,0,0,0,0,0,0,0,0,0,0,0,0,0,3516,3516,0,0,0,0,0,0,0,0,0,0,0,0,0,
0,0,0,3516,3516,3516,0,0,0,0,0,0,0,0,0,0,0,0,0,0,0,3516,3516,3516,3516,3516,3516,3516,3516,3516,3516,3516,3516,3516,3516,3516,3516,3516,3516,3516,
0,0,0,0,3516,3516,3516,3516,3516,3516,3516,3516,0,0,0,0,0,0,3516,3516,3516,3516,3516,3516,3516,3516,3516,3516,3516,3516,3516,3516,3516,3516,3516,3516,3516,3516,3516,3516,
0,0,0,0,0,3516,3516,3516,3516,3516,3516,3516,3516,3516,3516,3516,3516,3516,3516,3516,3516,3516,3516,3516,3516,3516,3516,3516,3516,3516,3516,3516,3516,3516,3516,3516,3516,3516,3516,3516,
0,0,0,0,0,0,3516,3516,3516,3516,3516,3516,3516,3516,3516,3516,3516,3516,3516,3516,3516,3516,3516,3516,3516,3516,0,0,0,0,0,0,0,0,3516,3516,3516,3516,3516,3516,
0,0,0,0,0,0,3516,3516,3516,3516,3516,3516,3516,3516,3516,3516,3516,3516,3516,3516,3516,3516,3516,3516,3516,0,0,0,0,0,0,0,0,0,0,3516,3516,3516,3516,3516,
0,0,0,0,0,3516,3516,3516,3516,3516,3516,3516,3516,3516,3516,3516,3516,3516,3516,3516,3516,3516,3516,3516,0,0,0,0,0,0,0,0,0,0,0,3516,3516,3516,3516,3516
</data>
 </layer>
 <layer id="2" name="grass_to_water_platform" width="40" height="20">
  <data encoding="csv">
0,0,0,0,827,306,340,307,371,339,371,307,371,371,340,340,340,338,340,340,339,339,338,339,371,340,307,340,0,0,0,0,0,340,338,338,339,307,338,371,
0,827,275,275,859,371,339,371,338,339,307,338,307,338,338,338,371,338,340,338,338,371,371,371,339,340,307,338,0,0,0,0,0,339,339,371,338,340,340,338,
0,548,340,340,307,339,371,338,371,307,339,371,340,307,340,307,340,339,340,339,339,340,307,338,307,340,371,340,0,0,0,0,0,339,340,339,338,307,339,339,
0,337,338,339,340,307,340,339,307,339,371,338,340,339,340,371,307,307,339,338,307,371,338,339,339,338,339,338,0,0,0,0,0,340,371,340,340,338,338,307,
0,337,307,338,307,371,340,307,371,307,307,340,339,339,340,338,371,339,340,340,339,371,307,339,371,307,307,371,0,0,0,0,0,371,339,338,307,340,371,338,
0,337,371,340,371,338,339,371,371,371,307,338,338,338,307,307,340,338,338,307,371,339,338,339,307,339,371,338,0,0,0,0,0,339,307,339,307,338,371,340,
0,644,562,371,340,307,307,307,371,339,307,338,371,338,371,340,340,340,339,338,339,338,371,371,339,371,307,307,0,0,0,0,0,339,307,339,339,339,339,338,
0,0,337,371,307,338,371,371,338,338,371,340,338,339,338,371,371,340,307,307,340,371,307,340,338,338,371,338,0,0,0,0,0,307,307,338,338,338,340,338,
0,0,548,371,339,339,307,371,339,339,338,339,371,307,307,371,339,340,340,371,340,338,338,307,338,338,338,371,0,0,0,0,0,371,338,307,340,338,339,340,
0,0,644,676,722,307,340,340,307,371,371,340,338,371,371,340,371,371,338,371,339,338,371,307,338,338,307,340,0,0,0,0,0,339,371,339,340,340,307,340,
0,0,0,0,369,612,371,340,307,307,371,371,340,339,371,339,338,339,371,340,371,338,307,338,338,371,371,307,0,0,0,0,0,371,307,340,307,338,307,340,
0,0,0,0,0,548,371,307,371,340,307,340,340,307,338,340,340,371,338,307,340,371,371,340,340,338,307,340,0,0,0,0,0,371,338,307,338,371,340,340,
0,0,0,0,0,402,722,338,307,371,307,339,339,307,371,338,339,371,338,340,340,340,338,338,571,676,403,612,340,339,307,339,307,340,340,339,307,371,340,307,
0,0,0,0,0,0,337,338,339,340,340,338,338,307,371,338,307,307,307,339,690,403,676,676,603,0,0,402,676,676,403,676,403,676,676,676,403,676,676,403,
827,795,276,0,0,0,369,403,676,403,676,403,612,340,307,339,340,571,676,403,373,0,0,0,0,0,0,0,0,0,0,0,0,0,0,0,0,0,0,0,
786,371,594,276,0,0,0,0,0,0,0,0,369,676,676,676,676,404,0,0,0,0,0,0,0,0,0,0,0,0,0,0,0,0,0,0,0,0,0,0,
371,339,340,594,276,0,0,0,0,0,0,0,0,0,0,0,0,0,0,0,0,0,0,0,0,0,0,0,0,0,0,0,0,0,0,0,0,0,0,0,
339,338,340,339,699,276,0,0,0,0,0,0,0,0,0,0,0,0,0,0,0,0,0,0,0,0,827,275,275,275,275,275,275,763,0,0,0,0,0,0,
307,340,339,340,372,404,0,0,0,0,0,0,0,0,0,0,0,0,0,0,0,0,0,0,0,274,786,340,0,0,0,340,371,308,276,0,0,0,0,0,
371,371,371,372,539,0,0,0,0,0,0,0,0,0,0,0,0,0,0,0,0,0,0,0,891,306,307,339,0,0,0,371,307,307,635,0,0,0,0,0
</data>
 </layer>
 <layer id="4" name="grass_platform" width="40" height="20">
  <data encoding="csv">
0,0,0,0,0,0,0,0,2,18,35,35,35,35,35,35,35,35,35,35,35,35,35,196,0,0,0,0,0,0,0,0,0,0,0,0,0,0,0,0,
0,0,0,0,0,0,0,17,193,35,35,35,35,35,35,35,35,35,35,35,35,35,35,37,0,0,0,0,0,0,0,0,0,0,0,0,0,0,0,0,
0,0,0,0,0,0,0,195,35,35,35,35,35,35,35,35,35,35,35,35,35,35,52,53,0,0,0,0,0,0,0,0,0,0,0,0,0,0,0,0,
0,0,0,0,0,0,0,204,147,145,146,50,35,35,35,35,35,35,35,35,35,210,199,69,0,0,0,0,0,0,0,0,0,0,0,0,0,0,0,0,
0,0,0,0,0,0,0,220,163,161,162,198,209,35,35,35,35,35,35,35,35,43,215,0,0,0,0,0,0,0,0,0,0,0,0,0,0,0,0,0,
0,0,0,0,0,0,0,0,0,0,0,214,42,35,35,35,35,35,35,35,35,212,0,0,0,0,0,0,0,0,0,0,0,0,0,0,0,0,0,0,
0,0,0,0,0,0,0,0,0,0,0,0,49,145,50,35,35,35,35,35,210,203,0,0,0,0,0,0,0,0,0,0,0,0,0,0,0,0,0,0,
0,0,0,0,0,0,0,0,0,0,0,0,65,161,200,145,1095,1096,1097,1098,199,219,0,0,0,0,0,0,0,0,0,0,0,0,0,0,0,0,0,0,
0,0,0,0,0,0,0,0,0,0,0,0,0,0,216,161,1149,1150,1151,1152,215,0,0,0,0,0,0,0,0,0,0,0,0,0,0,0,0,0,0,0,
0,0,0,0,0,0,0,0,0,0,0,0,0,0,0,0,1203,1204,1205,1206,0,0,0,0,0,0,0,0,0,0,0,0,0,0,0,0,0,0,0,0,
0,0,0,0,0,0,0,0,0,0,0,0,0,0,0,0,0,0,0,0,0,0,0,0,0,0,0,0,0,0,0,0,0,0,0,0,0,0,0,0,
0,0,0,0,0,0,0,0,0,0,0,0,0,0,0,0,0,0,0,0,0,0,0,0,0,0,0,0,0,0,0,0,0,0,0,0,0,0,0,0,
0,0,0,0,0,0,0,0,0,0,0,0,0,0,0,0,0,0,0,0,0,0,0,0,0,0,0,0,0,0,0,0,0,0,0,0,0,0,0,0,
0,0,0,0,0,0,0,0,0,0,0,0,0,0,0,0,0,0,0,0,0,0,0,0,0,0,0,0,0,0,0,0,0,0,0,0,0,0,0,0,
0,0,0,0,0,0,0,0,0,0,0,0,0,0,0,0,0,0,0,0,0,0,0,0,0,0,0,0,0,0,0,0,0,0,0,0,0,0,0,0,
0,0,0,0,0,0,0,0,0,0,0,0,0,0,0,0,0,0,0,0,0,0,0,0,0,0,0,0,0,0,0,0,0,0,0,0,0,0,0,0,
0,0,0,0,0,0,0,0,0,0,0,0,0,0,0,0,0,0,0,0,0,0,0,0,0,0,0,0,0,0,0,0,0,0,0,0,0,0,0,0,
0,0,0,0,0,0,0,0,0,0,0,0,0,0,0,0,0,0,0,0,0,0,0,0,0,0,0,0,0,0,0,0,0,0,0,0,0,0,0,0,
0,0,0,0,0,0,0,0,0,0,0,0,0,0,0,0,0,0,0,0,0,0,0,0,0,0,0,0,0,0,0,0,0,0,0,0,0,0,0,0,
0,0,0,0,0,0,0,0,0,0,0,0,0,0,0,0,0,0,0,0,0,0,0,0,0,0,0,0,0,0,0,0,0,0,0,0,0,0,0,0
</data>
 </layer>
 <layer id="12" name="terrain3" width="40" height="20">
  <data encoding="csv">
0,0,0,0,0,0,0,0,0,2472,2420,2420,2473,2475,2421,1993,1994,1939,1941,1942,2419,2420,2420,2476,0,0,0,0,0,0,0,0,0,0,0,0,0,0,0,0,
0,0,0,0,0,0,0,0,0,2526,2528,2528,2528,2583,2422,0,0,1884,1833,1779,2526,2528,2583,2584,0,0,0,0,0,0,0,0,0,0,0,0,0,0,0,0,
0,0,0,0,0,0,0,0,0,2635,2636,2636,2581,2475,2476,0,1777,1831,1941,1995,2635,2636,2637,0,0,0,0,0,0,0,0,0,0,0,0,0,0,0,0,0,
0,0,0,0,0,0,0,0,0,0,0,0,2580,2581,2475,2421,1993,1939,1888,0,0,0,0,0,0,0,0,0,0,0,0,0,0,0,0,0,0,0,0,0,
0,0,0,0,0,0,0,0,0,0,0,0,0,2526,2583,2637,0,1993,1942,2472,2421,0,0,0,0,0,0,0,0,0,0,0,0,0,0,0,0,0,0,0,
0,0,0,0,0,0,0,0,0,0,0,0,0,2580,2422,0,0,0,2419,2418,2637,0,0,0,0,0,0,0,0,0,0,0,0,0,0,0,0,0,0,0,
0,0,0,0,0,0,0,0,0,0,0,0,0,0,0,0,0,0,2635,2422,0,0,0,0,0,0,0,0,0,0,0,0,0,0,0,0,0,0,0,0,
0,0,0,0,0,0,0,0,0,0,0,0,0,0,0,0,0,0,0,0,0,0,0,0,0,0,0,0,0,0,0,0,0,0,0,0,0,0,0,0,
0,0,0,0,0,0,0,0,0,0,0,0,0,0,0,0,0,0,0,0,0,0,0,0,0,0,0,0,0,0,0,0,0,0,0,0,0,0,0,0,
0,0,0,0,0,0,0,0,0,0,0,0,0,0,0,0,0,0,0,0,0,0,0,0,0,0,0,0,0,0,0,0,0,0,0,0,0,0,0,0,
0,0,0,0,0,0,0,0,0,0,0,0,0,0,0,0,0,0,0,0,0,0,0,0,0,0,0,0,0,0,0,0,0,0,0,0,0,0,0,0,
0,0,0,0,0,0,0,0,0,0,0,0,0,0,0,0,0,0,0,0,0,0,0,0,0,0,0,0,0,0,0,0,0,0,2472,2420,2476,0,0,0,
0,0,0,0,0,0,0,0,0,0,0,0,0,0,0,0,0,0,0,0,0,0,0,0,0,0,0,0,0,0,0,0,0,0,2580,2636,2422,0,0,0,
0,0,0,0,0,0,0,0,0,0,0,0,0,0,0,0,0,0,0,0,0,0,0,0,0,0,0,0,0,0,0,0,0,0,0,0,0,0,0,0,
0,0,0,0,0,0,0,0,0,0,0,0,0,0,0,0,0,0,0,0,0,0,0,0,0,0,0,0,0,0,0,0,0,0,0,0,0,0,0,0,
0,0,0,0,0,0,0,0,0,0,0,0,0,0,0,0,0,0,0,0,0,0,0,0,0,0,0,0,0,0,0,0,0,0,0,0,0,0,0,0,
0,0,0,0,0,0,0,0,0,0,0,0,0,0,0,0,0,0,0,0,0,0,0,0,0,0,0,0,0,0,0,0,0,0,0,0,0,0,0,0,
0,0,0,0,0,0,0,0,0,0,0,0,0,0,0,0,0,0,0,0,0,0,0,0,0,0,0,0,0,0,0,0,0,0,0,0,0,0,0,0,
0,0,0,0,0,0,0,0,0,0,0,0,0,0,0,0,0,0,0,0,0,0,0,0,0,0,0,0,0,0,0,0,0,0,0,0,0,0,0,0,
0,0,0,0,0,0,0,0,0,0,0,0,0,0,0,0,0,0,0,0,0,0,0,0,0,0,0,0,0,0,0,0,0,0,0,0,0,0,0,0
</data>
 </layer>
 <layer id="13" name="fences2" width="40" height="20">
  <data encoding="csv">
0,0,0,0,0,0,0,0,0,0,0,0,0,0,1734,0,0,0,0,0,0,1734,0,0,0,0,0,0,0,0,0,0,0,0,0,0,0,0,0,0,
0,0,0,0,0,0,0,0,0,0,0,0,0,0,1789,1737,0,0,0,0,1735,1791,0,0,0,0,0,0,0,0,0,0,0,0,0,0,0,0,0,0,
0,0,0,0,0,0,0,0,0,0,0,0,0,0,0,1734,0,0,0,0,1734,0,0,0,0,0,0,0,0,0,0,0,0,0,0,0,0,0,0,0,
0,0,0,0,0,0,0,0,0,0,0,0,0,0,0,1793,0,0,0,1735,1791,0,0,0,0,0,0,0,0,0,0,0,0,0,0,0,0,0,0,0,
0,0,0,0,0,0,0,0,0,0,0,0,0,0,0,0,0,0,0,1793,0,0,0,0,0,0,0,0,0,0,0,0,0,0,0,0,0,0,0,0,
0,0,0,0,0,0,0,0,0,0,0,0,0,0,0,0,0,0,0,0,0,0,0,0,0,0,0,0,0,0,0,0,0,0,0,0,0,0,0,0,
0,0,0,0,0,0,0,0,0,0,0,0,0,0,0,0,0,0,0,0,0,0,0,0,0,0,0,0,0,0,0,0,0,0,0,0,0,0,0,0,
0,0,0,0,0,0,0,0,0,0,0,0,0,0,0,0,0,0,0,0,0,0,0,0,0,0,0,0,0,0,0,0,0,0,0,0,0,0,0,0,
0,0,0,0,0,0,0,0,0,0,0,0,0,0,0,0,0,0,0,0,0,0,0,0,0,0,0,0,0,0,0,0,0,0,0,0,0,0,0,0,
0,0,0,0,0,0,0,0,0,0,0,0,0,0,0,0,0,0,0,0,0,0,0,0,0,0,0,0,0,0,0,0,0,0,0,0,0,0,0,0,
0,0,0,0,0,0,0,0,0,0,0,0,0,0,0,0,0,0,0,0,0,0,0,0,0,0,0,0,0,0,0,0,0,0,0,0,0,0,0,0,
0,0,0,0,0,0,0,0,0,0,0,0,0,0,0,0,0,0,0,0,0,0,0,0,0,0,0,0,0,0,0,0,0,0,0,0,0,0,0,0,
0,0,0,0,0,0,0,0,0,0,0,0,0,0,0,0,0,0,0,0,0,0,0,0,0,0,0,0,0,0,0,0,0,0,0,0,0,0,0,0,
0,0,0,0,0,0,0,0,0,0,0,0,0,0,0,0,0,0,0,0,0,0,0,0,0,0,0,0,0,0,0,0,0,0,0,0,0,0,0,0,
0,0,0,0,0,0,0,0,0,0,0,0,0,0,0,0,0,0,0,0,0,0,0,0,0,0,0,0,0,0,0,0,0,0,0,0,0,0,0,0,
0,0,0,0,0,0,0,0,0,0,0,0,0,0,0,0,0,0,0,0,0,0,0,0,0,0,0,0,0,0,0,0,0,0,0,0,0,0,0,0,
0,0,0,0,0,0,0,0,0,0,0,0,0,0,0,0,0,0,0,0,0,0,0,0,0,0,0,0,0,0,0,0,0,0,0,0,0,0,0,0,
0,0,0,0,0,0,0,0,0,0,0,0,0,0,0,0,0,0,0,0,0,0,0,0,0,0,0,0,0,0,0,0,0,0,0,0,0,0,0,0,
0,0,0,0,0,0,0,0,0,0,0,0,0,0,0,0,0,0,0,0,0,0,0,0,0,0,0,0,0,0,0,0,0,0,0,0,0,0,0,0,
0,0,0,0,0,0,0,0,0,0,0,0,0,0,0,0,0,0,0,0,0,0,0,0,0,0,0,0,0,0,0,0,0,0,0,0,0,0,0,0
</data>
 </layer>
 <objectgroup id="15" name="collisions">
  <object id="269" x="234.667" y="53.3333" width="10.6667" height="85.3333"/>
  <object id="271" x="245.333" y="106.667" width="117.333" height="42.6667"/>
  <object id="273" x="362.667" y="128" width="21.3333" height="53.3333"/>
  <object id="275" x="394.667" y="149.333" width="10.6667" height="85.3333"/>
  <object id="276" x="405.333" y="202.667" width="53.3333" height="42.6667"/>
  <object id="277" x="458.667" y="224" width="21.3333" height="53.3333"/>
  <object id="279" x="480" y="234.667" width="64" height="42.6667"/>
  <object id="281" x="384" y="138.667" width="10.6667" height="53.3333"/>
  <object id="282" x="288" y="0" width="21.3333" height="21.3333"/>
  <object id="283" x="266.667" y="10.6667" width="21.3333" height="21.3333"/>
  <object id="284" x="245.333" y="32" width="10.6667" height="21.3333"/>
  <object id="285" x="256" y="32" width="10.6667" height="10.6667"/>
  <object id="286" x="608" y="234.667" width="42.6667" height="42.6667"/>
  <object id="287" x="682.667" y="117.333" width="10.6667" height="117.333"/>
  <object id="288" x="661.333" y="202.667" width="21.3333" height="42.6667"/>
  <object id="289" x="650.667" y="224" width="10.6667" height="42.6667"/>
  <object id="290" x="693.333" y="106.667" width="21.3333" height="42.6667"/>
  <object id="291" x="714.667" y="96" width="10.6667" height="42.6667"/>
  <object id="294" x="725.333" y="74.6667" width="21.3333" height="42.6667"/>
  <object id="296" x="746.667" y="0" width="10.6667" height="106.667"/>
  <object id="297" x="618.667" y="96" width="10.6667" height="64"/>
  <object id="298" x="629.333" y="96" width="32" height="32"/>
  <object id="300" x="650.667" y="32" width="10.6667" height="64"/>
  <object id="301" x="661.333" y="32" width="32" height="32"/>
  <object id="302" x="682.667" y="0" width="10.6667" height="32"/>
  <object id="303" x="458.667" y="0" width="10.6667" height="64"/>
  <object id="304" x="469.333" y="32" width="32" height="32"/>
  <object id="305" x="490.667" y="64" width="10.6667" height="64"/>
  <object id="306" x="394.667" y="480" width="21.3333" height="32"/>
  <object id="307" x="416" y="490.667" width="128" height="21.3333"/>
  <object id="308" x="544" y="480" width="21.3333" height="32"/>
  <object id="312" x="554.667" y="458.667" width="85.3333" height="21.3333"/>
  <object id="313" x="640" y="448" width="21.3333" height="21.3333"/>
  <object id="314" x="650.667" y="426.667" width="138.667" height="21.3333"/>
  <object id="315" x="778.667" y="394.667" width="21.3333" height="32"/>
  <object id="316" x="800" y="394.667" width="85.3333" height="21.3333"/>
  <object id="317" x="874.667" y="416" width="21.3333" height="32"/>
  <object id="319" x="896" y="426.667" width="384" height="21.3333"/>
  <object id="320" x="778.667" y="0" width="10.6667" height="138.667"/>
  <object id="322" x="874.667" y="0" width="10.6667" height="53.3333"/>
  <object id="324" x="885.333" y="32" width="42.6667" height="21.3333"/>
  <object id="326" x="1184" y="224" width="96" height="32"/>
  <object id="327" x="1120" y="320" width="128" height="32"/>
  <object id="328" x="1216" y="352" width="64" height="32"/>
  <object id="329" x="224" y="458.667" width="181.333" height="21.3333"/>
  <object id="330" x="202.667" y="448" width="21.3333" height="32"/>
  <object id="331" x="192" y="394.667" width="21.3333" height="53.3333"/>
  <object id="332" x="170.667" y="384" width="21.3333" height="32"/>
  <object id="333" x="160" y="341.333" width="21.3333" height="42.6667"/>
  <object id="334" x="128" y="320" width="32" height="32"/>
  <object id="335" x="96" y="298.667" width="53.3333" height="21.3333"/>
  <object id="336" x="64" y="288" width="32" height="32"/>
  <object id="337" x="64" y="213.333" width="21.3333" height="74.6667"/>
  <object id="338" x="32" y="192" width="32" height="32"/>
  <object id="339" x="32" y="42.6667" width="21.3333" height="149.333"/>
  <object id="340" x="53.3333" y="32" width="96" height="21.3333"/>
  <object id="341" x="138.667" y="0" width="10.6667" height="32"/>
  <object id="342" x="149.333" y="0" width="32" height="21.3333"/>
  <object id="344" x="181.333" y="0" width="1098.67" height="10.6667"/>
  <object id="345" x="1269.33" y="10.6667" width="10.6667" height="416"/>
  <object id="346" x="1226.67" y="394.667"/>
 </objectgroup>
</map>
